!!!COM: Fux, Johann Joseph
!!!OMD: Gradus ad Parnassum Exercise
!!!YEC: CC0 1.0 Universal (Public Domain). Mark Gotham and FourScoreAndMore.org waive all rights to this document.
**kern	**kern
*part2	*part1
*staff2	*staff1
*I"2	*I"1
*I'Pno	*I'Pno
!!LO:PB:g=z
*clefG2	*clefG2
*k[]	*k[]
!!LO:TX:omd:t=
*M2/2	*M2/2
=326	=326
!	!LO:TX:a:t=Fig. 73; Species&colon; 4; Modal final&colon; d; Cantus firmus&colon; Lower
1d	2r
.	[2a/
=327	=327
1f	2a/]
.	[2dd\
=328	=328
1e	2dd\]
.	[2cc\
=329	=329
1d	2cc\]
.	[2b-X\
=330	=330
1g	2b-\]
.	2g/
=331	=331
1f	2a/
.	[2cc\
=332	=332
1a	2cc\]
.	[2ff\
=333	=333
1g	2ff\]
.	[2ee\
=334	=334
1f	2ee\]
.	[2dd\
=335	=335
1e	2dd\]
.	2cc#X\
=336	=336
1d	1dd
==	==
*-	*-
!!!software: music21 v.9.7.1
!!!software: music21 v.9.7.1
!!!software: MuseScore 3.4.2
!!!RDF**kern: > = above
!!!RDF**kern: < = below
